X: 1
T: Mayn Ershtn Tants Bay Dir
M: 3/4
L: 1/8
R: waltz
K: Amin
|: z2 E2 | 
F4 E2 | A4 B2 | c6- | c2 A2 B2 | c2 A B3 | c2 d c3 | B6- | B4 E2 |
F4 E2 | B4 c2 | d6- | d2 B2 c2 | d2 B2 c2 | d2 e2 f2 | e6- | e4 E2 |
F2 E4- | E2 A2 B2 | c6- | c2 A2 B2 | c2 A2 c2 | d2 c2 d2 | e6- | e2 f2 e2 | 
d3 c B2- | B2 e2 d2 | c3 B A2- | A2 d2 c2 | B2 c2 B2 | B2 A2 ^G2 | A6- | A2 :| 
|: e2 c2 |
e6- | e2 e2 c2 | e6- | e2 f2 d2 | f6- | f2 f2 d2 | f6- | f2 B2 c2 |  
d2 d4- | d2 c2 d2 | e6- | e2 d2 c2 | B4 f2 | e4 ^G2 | A6- | A2 :|
